X:1
T:Lansdowne, 87.87.878
T:Lansdowne, 87.87.878
T:William Skinner Vinning (1839-1927)
T:Public Domain Courtesy of the Cyber Hymnal™
C:William Skinner Vinning (1839-1927)
Z:Public Domain
Z:Courtesy of the Cyber Hymnal™
%%score 1 ( 2 3 ) ( 4 5 )
L:1/8
Q:1/4=105
M:4/4
K:D
V:1 treble 
V:2 treble 
V:3 treble 
V:4 bass 
V:5 bass 
V:1
 [FA][FA][DF][DF] [FA]2 [EA]2 | [Gd]4 [EA]4 | [FA]2 [FB]2 [GB]3 [FA] | [EG]2 [DF]2 [CE]4 | %4
 [FA][FA][DF][DF] [FA]2 [EA]2 x4 | [Fd]4 [Gd]4 | [Ec]2 [EB]2 [FA]3 [Fd] | [Ge]3 [Fd] [Fd]4 | %8
 F6 D2 | B4 G4 | ^G6 E2 | c4 A4 | d4 d4 x2 | d6 B2 | A4 A4 | D8 |] %16
V:2
"^Organ" (FEDE) [^CF]2 [CDFA]2 | [B,DGB]4 [B,DG]4 | (^GFEF) [DG]2 [DEGB]2 | [CEAc]2 E2 A2 [EAc]2 | %4
 d4 [DF]2 d4 [DA]2 | [DGd]2 [Bdg]2 [GBd]2 [DEGB]2 | [DFA]4 [CEGA]4 | [DFAd]8 | x8 | x8 | x8 | x8 | %12
 x10 | x8 | x8 | x8 |] %16
V:3
 =C4 x4 | x8 | D4 x4 | x8 | [D-A]2 [D-G]2 x8 | x8 | x8 | x8 | x8 | x8 | x8 | x8 | x10 | x8 | x8 | %15
 x8 |] %16
V:4
 [D,A,][D,A,][D,A,][D,A,] [D,D]2 [D,C]2 | [D,B,]4 [D,C]4 | [D,D]2 [^D,B,]2 [E,B,]3 [F,B,] | %3
 [G,B,]2 [^G,B,]2 [A,C]4 | [D,D][D,D][D,A,][D,A,] [D,D]2 [D,C]2 x4 | [D,=C]4 [G,B,]4 | %6
 [^G,D]2 [G,D]2 [A,D]3 [A,D] | [A,C]3 [D,D] [D,D]4 | (A,G,F,G,) A,2 [D,,D,]2 | D,4 G,4 | %10
 (B,A,^G,A,) B,2 [E,,E,]2 | [A,,E,]2 E,2 A,2 [G,A,]2 | A,4 A,4 F,2 | [G,B,]6 [G,B,]2 | %14
 A,4 [A,,A,]4 | [D,,A,,D,A,]8 |] %16
V:5
 x8 | x8 | x8 | x8 | x12 | x8 | x8 | x8 | [D,,D,]6 x2 | G,,8 | [E,,E,]6 x2 | x8 | F,2 D,2 E,2 x4 | %13
 x8 | A,4 x4 | x8 |] %16

